X: 4374
T: Dalkeith House
C: by the late Mr James Macdonald
%R: reel
B: Niel Gow & Sons "Complete Repository" v.4 p.37 #4
Z: 2021 John Chambers <jc:trillian.mit.edu>
M: C|
L: 1/8
K: D
% - - - - - - - - - -
V: 1 staves=2
f |\
~d2 AB/c/ dAFD | GEed cAA=c | TB2GB AdFA | GEAG FDD :| f | Tf2df eace | dBed cAA=c |
TB2GB AdFA | GBAG FDDg | (Tf>ef).d eace | dfed cAA=c | (TB>AB).G FGA=c | BGge fd d |]
% - - - - - - - - - -
% Voice 2 preserves the book's staff layout.
V: 2 clef=bass middle=d
z | d2d2 d2f2 | g2^g2 a2f2 | g2e2 f2d2 | c2A2 d2D :| z | d2d'2 c'2a2 | b2^g2 a2f2 |
g2e2 f2d2 | e2c2 d2D2 | d'2b2 c'2a2 | b2^g2 a2f2 | g2e2 def2 | g2a2 d2d |]


